P3
13 13
13
0 0 0 1 1 1 6 6 6 9 9 9 10 10 10 5 5 5 2 2 2 11 11 11 8 8 8 3 3 3 4 4 4 7 7 7 12 12 12 
1 1 1 2 2 2 7 7 7 10 10 10 11 11 11 6 6 6 3 3 3 12 12 12 9 9 9 4 4 4 5 5 5 8 8 8 0 0 0 
6 6 6 7 7 7 12 12 12 2 2 2 3 3 3 11 11 11 8 8 8 4 4 4 1 1 1 9 9 9 10 10 10 0 0 0 5 5 5 
9 9 9 10 10 10 2 2 2 5 5 5 6 6 6 1 1 1 11 11 11 7 7 7 4 4 4 12 12 12 0 0 0 3 3 3 8 8 8 
10 10 10 11 11 11 3 3 3 6 6 6 7 7 7 2 2 2 12 12 12 8 8 8 5 5 5 0 0 0 1 1 1 4 4 4 9 9 9 
5 5 5 6 6 6 11 11 11 1 1 1 2 2 2 10 10 10 7 7 7 3 3 3 0 0 0 8 8 8 9 9 9 12 12 12 4 4 4 
2 2 2 3 3 3 8 8 8 11 11 11 12 12 12 7 7 7 4 4 4 0 0 0 10 10 10 5 5 5 6 6 6 9 9 9 1 1 1 
11 11 11 12 12 12 4 4 4 7 7 7 8 8 8 3 3 3 0 0 0 9 9 9 6 6 6 1 1 1 2 2 2 5 5 5 10 10 10 
8 8 8 9 9 9 1 1 1 4 4 4 5 5 5 0 0 0 10 10 10 6 6 6 3 3 3 11 11 11 12 12 12 2 2 2 7 7 7 
3 3 3 4 4 4 9 9 9 12 12 12 0 0 0 8 8 8 5 5 5 1 1 1 11 11 11 6 6 6 7 7 7 10 10 10 2 2 2 
4 4 4 5 5 5 10 10 10 0 0 0 1 1 1 9 9 9 6 6 6 2 2 2 12 12 12 7 7 7 8 8 8 11 11 11 3 3 3 
7 7 7 8 8 8 0 0 0 3 3 3 4 4 4 12 12 12 9 9 9 5 5 5 2 2 2 10 10 10 11 11 11 1 1 1 6 6 6 
12 12 12 0 0 0 5 5 5 8 8 8 9 9 9 4 4 4 1 1 1 10 10 10 7 7 7 2 2 2 3 3 3 6 6 6 11 11 11 
