P3
17 17
17
0 0 0 1 1 1 15 15 15 5 5 5 4 4 4 14 14 14 7 7 7 11 11 11 9 9 9 8 8 8 6 6 6 10 10 10 3 3 3 13 13 13 12 12 12 2 2 2 16 16 16 1 1 1 2 2 2 16 16 16 6 6 6 5 5 5 15 15 15 8 8 8 12 12 12 10 10 10 9 9 9 7 7 7 11 11 11 4 4 4 14 14 14 13 13 13 3 3 3 0 0 0 15 15 15 16 16 16 13 13 13 3 3 3 2 2 2 12 12 12 5 5 5 9 9 9 7 7 7 6 6 6 4 4 4 8 8 8 1 1 1 11 11 11 10 10 10 0 0 0 14 14 14 5 5 5 6 6 6 3 3 3 10 10 10 9 9 9 2 2 2 12 12 12 16 16 16 14 14 14 13 13 13 11 11 11 15 15 15 8 8 8 1 1 1 0 0 0 7 7 7 4 4 4 4 4 4 5 5 5 2 2 2 9 9 9 8 8 8 1 1 1 11 11 11 15 15 15 13 13 13 12 12 12 10 10 10 14 14 14 7 7 7 0 0 0 16 16 16 6 6 6 3 3 3 14 14 14 15 15 15 12 12 12 2 2 2 1 1 1 11 11 11 4 4 4 8 8 8 6 6 6 5 5 5 3 3 3 7 7 7 0 0 0 10 10 10 9 9 9 16 16 16 13 13 13 7 7 7 8 8 8 5 5 5 12 12 12 11 11 11 4 4 4 14 14 14 1 1 1 16 16 16 15 15 15 13 13 13 0 0 0 10 10 10 3 3 3 2 2 2 9 9 9 6 6 6 11 11 11 12 12 12 9 9 9 16 16 16 15 15 15 8 8 8 1 1 1 5 5 5 3 3 3 2 2 2 0 0 0 4 4 4 14 14 14 7 7 7 6 6 6 13 13 13 10 10 10 9 9 9 10 10 10 7 7 7 14 14 14 13 13 13 6 6 6 16 16 16 3 3 3 1 1 1 0 0 0 15 15 15 2 2 2 12 12 12 5 5 5 4 4 4 11 11 11 8 8 8 8 8 8 9 9 9 6 6 6 13 13 13 12 12 12 5 5 5 15 15 15 2 2 2 0 0 0 16 16 16 14 14 14 1 1 1 11 11 11 4 4 4 3 3 3 10 10 10 7 7 7 6 6 6 7 7 7 4 4 4 11 11 11 10 10 10 3 3 3 13 13 13 0 0 0 15 15 15 14 14 14 12 12 12 16 16 16 9 9 9 2 2 2 1 1 1 8 8 8 5 5 5 10 10 10 11 11 11 8 8 8 15 15 15 14 14 14 7 7 7 0 0 0 4 4 4 2 2 2 1 1 1 16 16 16 3 3 3 13 13 13 6 6 6 5 5 5 12 12 12 9 9 9 3 3 3 4 4 4 1 1 1 8 8 8 7 7 7 0 0 0 10 10 10 14 14 14 12 12 12 11 11 11 9 9 9 13 13 13 6 6 6 16 16 16 15 15 15 5 5 5 2 2 2 13 13 13 14 14 14 11 11 11 1 1 1 0 0 0 10 10 10 3 3 3 7 7 7 5 5 5 4 4 4 2 2 2 6 6 6 16 16 16 9 9 9 8 8 8 15 15 15 12 12 12 12 12 12 13 13 13 10 10 10 0 0 0 16 16 16 9 9 9 2 2 2 6 6 6 4 4 4 3 3 3 1 1 1 5 5 5 15 15 15 8 8 8 7 7 7 14 14 14 11 11 11 2 2 2 3 3 3 0 0 0 7 7 7 6 6 6 16 16 16 9 9 9 13 13 13 11 11 11 10 10 10 8 8 8 12 12 12 5 5 5 15 15 15 14 14 14 4 4 4 1 1 1 16 16 16 0 0 0 14 14 14 4 4 4 3 3 3 13 13 13 6 6 6 10 10 10 8 8 8 7 7 7 5 5 5 9 9 9 2 2 2 12 12 12 11 11 11 1 1 1 15 15 15 