P3
11 11
11
0 0 0 1 1 1 10 10 10 1 1 1 1 1 1 1 1 1 10 10 10 10 10 10 10 10 10 1 1 1 10 10 10 1 1 1 2 2 2 0 0 0 2 2 2 2 2 2 2 2 2 0 0 0 0 0 0 0 0 0 2 2 2 0 0 0 
10 10 10 0 0 0 9 9 9 0 0 0 0 0 0 0 0 0 9 9 9 9 9 9 9 9 9 0 0 0 9 9 9 
1 1 1 2 2 2 0 0 0 2 2 2 2 2 2 2 2 2 0 0 0 0 0 0 0 0 0 2 2 2 0 0 0 
1 1 1 2 2 2 0 0 0 2 2 2 2 2 2 2 2 2 0 0 0 0 0 0 0 0 0 2 2 2 0 0 0 
1 1 1 2 2 2 0 0 0 2 2 2 2 2 2 2 2 2 0 0 0 0 0 0 0 0 0 2 2 2 0 0 0 
10 10 10 0 0 0 9 9 9 0 0 0 0 0 0 0 0 0 9 9 9 9 9 9 9 9 9 0 0 0 9 9 9 
10 10 10 0 0 0 9 9 9 0 0 0 0 0 0 0 0 0 9 9 9 9 9 9 9 9 9 0 0 0 9 9 9 
10 10 10 0 0 0 9 9 9 0 0 0 0 0 0 0 0 0 9 9 9 9 9 9 9 9 9 0 0 0 9 9 9 
1 1 1 2 2 2 0 0 0 2 2 2 2 2 2 2 2 2 0 0 0 0 0 0 0 0 0 2 2 2 0 0 0 
10 10 10 0 0 0 9 9 9 0 0 0 0 0 0 0 0 0 9 9 9 9 9 9 9 9 9 0 0 0 9 9 9 
