P3
19 19
19
0 0 0 1 1 1 13 13 13 15 15 15 17 17 17 9 9 9 5 5 5 11 11 11 12 12 12 16 16 16 3 3 3 7 7 7 8 8 8 14 14 14 10 10 10 2 2 2 4 4 4 6 6 6 18 181 1 1 2 2 2 14 14 14 16 16 16 18 18 18 10 10 10 6 6 6 12 12 12 13 13 13 17 17 17 4 4 4 8 8 8 9 9 9 15 15 15 11 11 11 3 3 3 5 5 5 7 7 7 0 13 13 13 14 14 14 7 7 7 9 9 9 11 11 11 3 3 3 18 18 18 5 5 5 6 6 6 10 10 10 16 16 16 1 1 1 2 2 2 8 8 8 4 4 4 15 15 15 17 17 17 0 0 0 12 1215 15 15 16 16 16 9 9 9 11 11 11 13 13 13 5 5 5 1 1 1 7 7 7 8 8 8 12 12 12 18 18 18 3 3 3 4 4 4 10 10 10 6 6 6 17 17 17 0 0 0 2 2 2 14 1417 17 17 18 18 18 11 11 11 13 13 13 15 15 15 7 7 7 3 3 3 9 9 9 10 10 10 14 14 14 1 1 1 5 5 5 6 6 6 12 12 12 8 8 8 0 0 0 2 2 2 4 4 4 16 169 9 9 10 10 10 3 3 3 5 5 5 7 7 7 18 18 18 14 14 14 1 1 1 2 2 2 6 6 6 12 12 12 16 16 16 17 17 17 4 4 4 0 0 0 11 11 11 13 13 13 15 15 15 8 5 5 5 6 6 6 18 18 18 1 1 1 3 3 3 14 14 14 10 10 10 16 16 16 17 17 17 2 2 2 8 8 8 12 12 12 13 13 13 0 0 0 15 15 15 7 7 7 9 9 9 11 11 11 4 11 11 11 12 12 12 5 5 5 7 7 7 9 9 9 1 1 1 16 16 16 3 3 3 4 4 4 8 8 8 14 14 14 18 18 18 0 0 0 6 6 6 2 2 2 13 13 13 15 15 15 17 17 17 10 1012 12 12 13 13 13 6 6 6 8 8 8 10 10 10 2 2 2 17 17 17 4 4 4 5 5 5 9 9 9 15 15 15 0 0 0 1 1 1 7 7 7 3 3 3 14 14 14 16 16 16 18 18 18 11 1116 16 16 17 17 17 10 10 10 12 12 12 14 14 14 6 6 6 2 2 2 8 8 8 9 9 9 13 13 13 0 0 0 4 4 4 5 5 5 11 11 11 7 7 7 18 18 18 1 1 1 3 3 3 15 153 3 3 4 4 4 16 16 16 18 18 18 1 1 1 12 12 12 8 8 8 14 14 14 15 15 15 0 0 0 6 6 6 10 10 10 11 11 11 17 17 17 13 13 13 5 5 5 7 7 7 9 9 9 2 7 7 7 8 8 8 1 1 1 3 3 3 5 5 5 16 16 16 12 12 12 18 18 18 0 0 0 4 4 4 10 10 10 14 14 14 15 15 15 2 2 2 17 17 17 9 9 9 11 11 11 13 13 13 6 8 8 8 9 9 9 2 2 2 4 4 4 6 6 6 17 17 17 13 13 13 0 0 0 1 1 1 5 5 5 11 11 11 15 15 15 16 16 16 3 3 3 18 18 18 10 10 10 12 12 12 14 14 14 7 14 14 14 15 15 15 8 8 8 10 10 10 12 12 12 4 4 4 0 0 0 6 6 6 7 7 7 11 11 11 17 17 17 2 2 2 3 3 3 9 9 9 5 5 5 16 16 16 18 18 18 1 1 1 13 1310 10 10 11 11 11 4 4 4 6 6 6 8 8 8 0 0 0 15 15 15 2 2 2 3 3 3 7 7 7 13 13 13 17 17 17 18 18 18 5 5 5 1 1 1 12 12 12 14 14 14 16 16 16 9 2 2 2 3 3 3 15 15 15 17 17 17 0 0 0 11 11 11 7 7 7 13 13 13 14 14 14 18 18 18 5 5 5 9 9 9 10 10 10 16 16 16 12 12 12 4 4 4 6 6 6 8 8 8 1 4 4 4 5 5 5 17 17 17 0 0 0 2 2 2 13 13 13 9 9 9 15 15 15 16 16 16 1 1 1 7 7 7 11 11 11 12 12 12 18 18 18 14 14 14 6 6 6 8 8 8 10 10 10 3 6 6 6 7 7 7 0 0 0 2 2 2 4 4 4 15 15 15 11 11 11 17 17 17 18 18 18 3 3 3 9 9 9 13 13 13 14 14 14 1 1 1 16 16 16 8 8 8 10 10 10 12 12 12 5 18 18 18 0 0 0 12 12 12 14 14 14 16 16 16 8 8 8 4 4 4 10 10 10 11 11 11 15 15 15 2 2 2 6 6 6 7 7 7 13 13 13 9 9 9 1 1 1 3 3 3 5 5 5 17 17