P3
23 23
23
0 0 0 1 1 1 9 9 9 13 13 13 12 12 12 20 20 20 2 2 2 17 17 17 16 16 16 8 8 8 19 19 19 5 5 5 18 18 18 4 4 4 15 15 15 7 7 7 6 6 6 21 21 21 3 3 3 11 11 11 10 10 10 14 14 14 22 22 22 
1 1 1 2 2 2 10 10 10 14 14 14 13 13 13 21 21 21 3 3 3 18 18 18 17 17 17 9 9 9 20 20 20 6 6 6 19 19 19 5 5 5 16 16 16 8 8 8 7 7 7 22 22 22 4 4 4 12 12 12 11 11 11 15 15 15 0 0 0 
9 9 9 10 10 10 18 18 18 22 22 22 21 21 21 6 6 6 11 11 11 3 3 3 2 2 2 17 17 17 5 5 5 14 14 14 4 4 4 13 13 13 1 1 1 16 16 16 15 15 15 7 7 7 12 12 12 20 20 20 19 19 19 0 0 0 8 8 8 
13 13 13 14 14 14 22 22 22 3 3 3 2 2 2 10 10 10 15 15 15 7 7 7 6 6 6 21 21 21 9 9 9 18 18 18 8 8 8 17 17 17 5 5 5 20 20 20 19 19 19 11 11 11 16 16 16 1 1 1 0 0 0 4 4 4 12 12 12 
12 12 12 13 13 13 21 21 21 2 2 2 1 1 1 9 9 9 14 14 14 6 6 6 5 5 5 20 20 20 8 8 8 17 17 17 7 7 7 16 16 16 4 4 4 19 19 19 18 18 18 10 10 10 15 15 15 0 0 0 22 22 22 3 3 3 11 11 11 
20 20 20 21 21 21 6 6 6 10 10 10 9 9 9 17 17 17 22 22 22 14 14 14 13 13 13 5 5 5 16 16 16 2 2 2 15 15 15 1 1 1 12 12 12 4 4 4 3 3 3 18 18 18 0 0 0 8 8 8 7 7 7 11 11 11 19 19 19 
2 2 2 3 3 3 11 11 11 15 15 15 14 14 14 22 22 22 4 4 4 19 19 19 18 18 18 10 10 10 21 21 21 7 7 7 20 20 20 6 6 6 17 17 17 9 9 9 8 8 8 0 0 0 5 5 5 13 13 13 12 12 12 16 16 16 1 1 1 
17 17 17 18 18 18 3 3 3 7 7 7 6 6 6 14 14 14 19 19 19 11 11 11 10 10 10 2 2 2 13 13 13 22 22 22 12 12 12 21 21 21 9 9 9 1 1 1 0 0 0 15 15 15 20 20 20 5 5 5 4 4 4 8 8 8 16 16 16 
16 16 16 17 17 17 2 2 2 6 6 6 5 5 5 13 13 13 18 18 18 10 10 10 9 9 9 1 1 1 12 12 12 21 21 21 11 11 11 20 20 20 8 8 8 0 0 0 22 22 22 14 14 14 19 19 19 4 4 4 3 3 3 7 7 7 15 15 15 
8 8 8 9 9 9 17 17 17 21 21 21 20 20 20 5 5 5 10 10 10 2 2 2 1 1 1 16 16 16 4 4 4 13 13 13 3 3 3 12 12 12 0 0 0 15 15 15 14 14 14 6 6 6 11 11 11 19 19 19 18 18 18 22 22 22 7 7 7 
19 19 19 20 20 20 5 5 5 9 9 9 8 8 8 16 16 16 21 21 21 13 13 13 12 12 12 4 4 4 15 15 15 1 1 1 14 14 14 0 0 0 11 11 11 3 3 3 2 2 2 17 17 17 22 22 22 7 7 7 6 6 6 10 10 10 18 18 18 
5 5 5 6 6 6 14 14 14 18 18 18 17 17 17 2 2 2 7 7 7 22 22 22 21 21 21 13 13 13 1 1 1 10 10 10 0 0 0 9 9 9 20 20 20 12 12 12 11 11 11 3 3 3 8 8 8 16 16 16 15 15 15 19 19 19 4 4 4 
18 18 18 19 19 19 4 4 4 8 8 8 7 7 7 15 15 15 20 20 20 12 12 12 11 11 11 3 3 3 14 14 14 0 0 0 13 13 13 22 22 22 10 10 10 2 2 2 1 1 1 16 16 16 21 21 21 6 6 6 5 5 5 9 9 9 17 17 17 
4 4 4 5 5 5 13 13 13 17 17 17 16 16 16 1 1 1 6 6 6 21 21 21 20 20 20 12 12 12 0 0 0 9 9 9 22 22 22 8 8 8 19 19 19 11 11 11 10 10 10 2 2 2 7 7 7 15 15 15 14 14 14 18 18 18 3 3 3 
15 15 15 16 16 16 1 1 1 5 5 5 4 4 4 12 12 12 17 17 17 9 9 9 8 8 8 0 0 0 11 11 11 20 20 20 10 10 10 19 19 19 7 7 7 22 22 22 21 21 21 13 13 13 18 18 18 3 3 3 2 2 2 6 6 6 14 14 14 
7 7 7 8 8 8 16 16 16 20 20 20 19 19 19 4 4 4 9 9 9 1 1 1 0 0 0 15 15 15 3 3 3 12 12 12 2 2 2 11 11 11 22 22 22 14 14 14 13 13 13 5 5 5 10 10 10 18 18 18 17 17 17 21 21 21 6 6 6 
6 6 6 7 7 7 15 15 15 19 19 19 18 18 18 3 3 3 8 8 8 0 0 0 22 22 22 14 14 14 2 2 2 11 11 11 1 1 1 10 10 10 21 21 21 13 13 13 12 12 12 4 4 4 9 9 9 17 17 17 16 16 16 20 20 20 5 5 5 
21 21 21 22 22 22 7 7 7 11 11 11 10 10 10 18 18 18 0 0 0 15 15 15 14 14 14 6 6 6 17 17 17 3 3 3 16 16 16 2 2 2 13 13 13 5 5 5 4 4 4 19 19 19 1 1 1 9 9 9 8 8 8 12 12 12 20 20 20 
3 3 3 4 4 4 12 12 12 16 16 16 15 15 15 0 0 0 5 5 5 20 20 20 19 19 19 11 11 11 22 22 22 8 8 8 21 21 21 7 7 7 18 18 18 10 10 10 9 9 9 1 1 1 6 6 6 14 14 14 13 13 13 17 17 17 2 2 2 
11 11 11 12 12 12 20 20 20 1 1 1 0 0 0 8 8 8 13 13 13 5 5 5 4 4 4 19 19 19 7 7 7 16 16 16 6 6 6 15 15 15 3 3 3 18 18 18 17 17 17 9 9 9 14 14 14 22 22 22 21 21 21 2 2 2 10 10 10 
10 10 10 11 11 11 19 19 19 0 0 0 22 22 22 7 7 7 12 12 12 4 4 4 3 3 3 18 18 18 6 6 6 15 15 15 5 5 5 14 14 14 2 2 2 17 17 17 16 16 16 8 8 8 13 13 13 21 21 21 20 20 20 1 1 1 9 9 9 
14 14 14 15 15 15 0 0 0 4 4 4 3 3 3 11 11 11 16 16 16 8 8 8 7 7 7 22 22 22 10 10 10 19 19 19 9 9 9 18 18 18 6 6 6 21 21 21 20 20 20 12 12 12 17 17 17 2 2 2 1 1 1 5 5 5 13 13 13 
22 22 22 0 0 0 8 8 8 12 12 12 11 11 11 19 19 19 1 1 1 16 16 16 15 15 15 7 7 7 18 18 18 4 4 4 17 17 17 3 3 3 14 14 14 6 6 6 5 5 5 20 20 20 2 2 2 10 10 10 9 9 9 13 13 13 21 21 21 
