P3
20 20
20
0 0 0 1 1 1 12 12 12 3 3 3 4 4 4 5 5 5 16 16 16 7 7 7 8 8 8 9 9 9 0 0 0 11 11 11 12 12 12 13 13 13 4 4 4 15 15 15 16 16 16 17 17 17 8 8 8 19 19 1 1 1 2 2 2 13 13 13 4 4 4 5 5 5 6 6 6 17 17 17 8 8 8 9 9 9 10 10 10 1 1 1 12 12 12 13 13 13 14 14 14 5 5 5 16 16 16 17 17 17 18 18 18 9 9 9 0 012 12 12 13 13 13 4 4 4 15 15 15 16 16 16 17 17 17 8 8 8 19 19 19 0 0 0 1 1 1 12 12 12 3 3 3 4 4 4 5 5 5 16 16 16 7 7 7 8 8 8 9 9 9 0 0 0 11 11 3 3 3 4 4 4 15 15 15 6 6 6 7 7 7 8 8 8 19 19 19 10 10 10 11 11 11 12 12 12 3 3 3 14 14 14 15 15 15 16 16 16 7 7 7 18 18 18 19 19 19 0 0 0 11 11 4 4 4 5 5 5 16 16 16 7 7 7 8 8 8 9 9 9 0 0 0 11 11 11 12 12 12 13 13 13 4 4 4 15 15 15 16 16 16 17 17 17 8 8 8 19 19 19 0 0 0 1 1 1 12 12 12 3 35 5 5 6 6 6 17 17 17 8 8 8 9 9 9 10 10 10 1 1 1 12 12 12 13 13 13 14 14 14 5 5 5 16 16 16 17 17 17 18 18 18 9 9 9 0 0 0 1 1 1 2 2 2 13 13 13 4 416 16 16 17 17 17 8 8 8 19 19 19 0 0 0 1 1 1 12 12 12 3 3 3 4 4 4 5 5 5 16 16 16 7 7 7 8 8 8 9 9 9 0 0 0 11 11 11 12 12 12 13 13 13 4 4 4 15 15 7 7 7 8 8 8 19 19 19 10 10 10 11 11 11 12 12 12 3 3 3 14 14 14 15 15 15 16 16 16 7 7 7 18 18 18 19 19 19 0 0 0 11 11 11 2 2 2 3 3 3 4 4 4 15 15 8 8 8 9 9 9 0 0 0 11 11 11 12 12 12 13 13 13 4 4 4 15 15 15 16 16 16 17 17 17 8 8 8 19 19 19 0 0 0 1 1 1 12 12 12 3 3 3 4 4 4 5 5 5 16 16 16 7 79 9 9 10 10 10 1 1 1 12 12 12 13 13 13 14 14 14 5 5 5 16 16 16 17 17 17 18 18 18 9 9 9 0 0 0 1 1 1 2 2 2 13 13 13 4 4 4 5 5 5 6 6 6 17 17 17 8 80 0 0 1 1 1 12 12 12 3 3 3 4 4 4 5 5 5 16 16 16 7 7 7 8 8 8 9 9 9 0 0 0 11 11 11 12 12 12 13 13 13 4 4 4 15 15 15 16 16 16 17 17 17 8 8 8 19 19 11 11 11 12 12 12 3 3 3 14 14 14 15 15 15 16 16 16 7 7 7 18 18 18 19 19 19 0 0 0 11 11 11 2 2 2 3 3 3 4 4 4 15 15 15 6 6 6 7 7 7 8 8 8 19 19 19 12 12 12 13 13 13 4 4 4 15 15 15 16 16 16 17 17 17 8 8 8 19 19 19 0 0 0 1 1 1 12 12 12 3 3 3 4 4 4 5 5 5 16 16 16 7 7 7 8 8 8 9 9 9 0 0 0 11 11 13 13 13 14 14 14 5 5 5 16 16 16 17 17 17 18 18 18 9 9 9 0 0 0 1 1 1 2 2 2 13 13 13 4 4 4 5 5 5 6 6 6 17 17 17 8 8 8 9 9 9 10 10 10 1 1 1 12 12 4 4 4 5 5 5 16 16 16 7 7 7 8 8 8 9 9 9 0 0 0 11 11 11 12 12 12 13 13 13 4 4 4 15 15 15 16 16 16 17 17 17 8 8 8 19 19 19 0 0 0 1 1 1 12 12 12 3 315 15 15 16 16 16 7 7 7 18 18 18 19 19 19 0 0 0 11 11 11 2 2 2 3 3 3 4 4 4 15 15 15 6 6 6 7 7 7 8 8 8 19 19 19 10 10 10 11 11 11 12 12 12 3 3 3 16 16 16 17 17 17 8 8 8 19 19 19 0 0 0 1 1 1 12 12 12 3 3 3 4 4 4 5 5 5 16 16 16 7 7 7 8 8 8 9 9 9 0 0 0 11 11 11 12 12 12 13 13 13 4 4 4 15 15 17 17 17 18 18 18 9 9 9 0 0 0 1 1 1 2 2 2 13 13 13 4 4 4 5 5 5 6 6 6 17 17 17 8 8 8 9 9 9 10 10 10 1 1 1 12 12 12 13 13 13 14 14 14 5 5 5 16 16 8 8 8 9 9 9 0 0 0 11 11 11 12 12 12 13 13 13 4 4 4 15 15 15 16 16 16 17 17 17 8 8 8 19 19 19 0 0 0 1 1 1 12 12 12 3 3 3 4 4 4 5 5 5 16 16 16 7 719 19 19 0 0 0 11 11 11 2 2 2 3 3 3 4 4 4 15 15 15 6 6 6 7 7 7 8 8 8 19 19 19 10 10 10 11 11 11 12 12 12 3 3 3 14 14 14 15 15 15 16 16 16 7 7 7 