P3
31 31
31
0 0 0 1 1 1 1 1 1 26 26 26 1 1 1 25 25 25 26 26 26 5 5 5 1 1 1 25 25 25 25 25 25 6 6 6 26 26 26 6 6 6 5 5 5 30 30 30 1 1 1 26 26 26 25 25 25 5 5 5 25 25 25 6 6 6 6 6 6 30 30 30 26 26 26 5 5 5 6 6 6 30 30 30 5 5 5 30 30 301 1 1 2 2 2 2 2 2 27 27 27 2 2 2 26 26 26 27 27 27 6 6 6 2 2 2 26 26 26 26 26 26 7 7 7 27 27 27 7 7 7 6 6 6 0 0 0 2 2 2 27 27 27 26 26 26 6 6 6 26 26 26 7 7 7 7 7 7 0 0 0 27 27 27 6 6 6 7 7 7 0 0 0 6 6 6 0 0 0 0 0 0 
1 1 1 2 2 2 2 2 2 27 27 27 2 2 2 26 26 26 27 27 27 6 6 6 2 2 2 26 26 26 26 26 26 7 7 7 27 27 27 7 7 7 6 6 6 0 0 0 2 2 2 27 27 27 26 26 26 6 6 6 26 26 26 7 7 7 7 7 7 0 0 0 27 27 27 6 6 6 7 7 7 0 0 0 6 6 6 0 0 0 0 0 0 
26 26 26 27 27 27 27 27 27 21 21 21 27 27 27 20 20 20 21 21 21 0 0 0 27 27 27 20 20 20 20 20 20 1 1 1 21 21 21 1 1 1 0 0 0 25 25 25 27 27 27 21 21 21 20 20 20 0 0 0 20 20 20 1 1 1 1 1 1 25 25 25 21 21 21 0 0 0 1 1 1 25 251 1 1 2 2 2 2 2 2 27 27 27 2 2 2 26 26 26 27 27 27 6 6 6 2 2 2 26 26 26 26 26 26 7 7 7 27 27 27 7 7 7 6 6 6 0 0 0 2 2 2 27 27 27 26 26 26 6 6 6 26 26 26 7 7 7 7 7 7 0 0 0 27 27 27 6 6 6 7 7 7 0 0 0 6 6 6 0 0 0 0 0 0 
25 25 25 26 26 26 26 26 26 20 20 20 26 26 26 19 19 19 20 20 20 30 30 30 26 26 26 19 19 19 19 19 19 0 0 0 20 20 20 0 0 0 30 30 30 24 24 24 26 26 26 20 20 20 19 19 19 30 30 30 19 19 19 0 0 0 0 0 0 24 24 24 20 20 20 30 30 3026 26 26 27 27 27 27 27 27 21 21 21 27 27 27 20 20 20 21 21 21 0 0 0 27 27 27 20 20 20 20 20 20 1 1 1 21 21 21 1 1 1 0 0 0 25 25 25 27 27 27 21 21 21 20 20 20 0 0 0 20 20 20 1 1 1 1 1 1 25 25 25 21 21 21 0 0 0 1 1 1 25 255 5 5 6 6 6 6 6 6 0 0 0 6 6 6 30 30 30 0 0 0 10 10 10 6 6 6 30 30 30 30 30 30 11 11 11 0 0 0 11 11 11 10 10 10 4 4 4 6 6 6 0 0 0 30 30 30 10 10 10 30 30 30 11 11 11 11 11 11 4 4 4 0 0 0 10 10 10 11 11 11 4 4 4 10 10 10 4 1 1 1 2 2 2 2 2 2 27 27 27 2 2 2 26 26 26 27 27 27 6 6 6 2 2 2 26 26 26 26 26 26 7 7 7 27 27 27 7 7 7 6 6 6 0 0 0 2 2 2 27 27 27 26 26 26 6 6 6 26 26 26 7 7 7 7 7 7 0 0 0 27 27 27 6 6 6 7 7 7 0 0 0 6 6 6 0 0 0 0 0 0 
25 25 25 26 26 26 26 26 26 20 20 20 26 26 26 19 19 19 20 20 20 30 30 30 26 26 26 19 19 19 19 19 19 0 0 0 20 20 20 0 0 0 30 30 30 24 24 24 26 26 26 20 20 20 19 19 19 30 30 30 19 19 19 0 0 0 0 0 0 24 24 24 20 20 20 30 30 3025 25 25 26 26 26 26 26 26 20 20 20 26 26 26 19 19 19 20 20 20 30 30 30 26 26 26 19 19 19 19 19 19 0 0 0 20 20 20 0 0 0 30 30 30 24 24 24 26 26 26 20 20 20 19 19 19 30 30 30 19 19 19 0 0 0 0 0 0 24 24 24 20 20 20 30 30 306 6 6 7 7 7 7 7 7 1 1 1 7 7 7 0 0 0 1 1 1 11 11 11 7 7 7 0 0 0 0 0 0 12 12 12 1 1 1 12 12 12 11 11 11 5 5 5 7 7 7 1 1 1 0 0 0 11 11 11 0 0 0 12 12 12 12 12 12 5 5 5 1 1 1 11 11 11 12 12 12 5 5 5 11 11 11 5 5 5 5 5 5 
26 26 26 27 27 27 27 27 27 21 21 21 27 27 27 20 20 20 21 21 21 0 0 0 27 27 27 20 20 20 20 20 20 1 1 1 21 21 21 1 1 1 0 0 0 25 25 25 27 27 27 21 21 21 20 20 20 0 0 0 20 20 20 1 1 1 1 1 1 25 25 25 21 21 21 0 0 0 1 1 1 25 256 6 6 7 7 7 7 7 7 1 1 1 7 7 7 0 0 0 1 1 1 11 11 11 7 7 7 0 0 0 0 0 0 12 12 12 1 1 1 12 12 12 11 11 11 5 5 5 7 7 7 1 1 1 0 0 0 11 11 11 0 0 0 12 12 12 12 12 12 5 5 5 1 1 1 11 11 11 12 12 12 5 5 5 11 11 11 5 5 5 5 5 5 
5 5 5 6 6 6 6 6 6 0 0 0 6 6 6 30 30 30 0 0 0 10 10 10 6 6 6 30 30 30 30 30 30 11 11 11 0 0 0 11 11 11 10 10 10 4 4 4 6 6 6 0 0 0 30 30 30 10 10 10 30 30 30 11 11 11 11 11 11 4 4 4 0 0 0 10 10 10 11 11 11 4 4 4 10 10 10 4 30 30 30 0 0 0 0 0 0 25 25 25 0 0 0 24 24 24 25 25 25 4 4 4 0 0 0 24 24 24 24 24 24 5 5 5 25 25 25 5 5 5 4 4 4 29 29 29 0 0 0 25 25 25 24 24 24 4 4 4 24 24 24 5 5 5 5 5 5 29 29 29 25 25 25 4 4 4 5 5 5 29 29 29 4 4 4 29 291 1 1 2 2 2 2 2 2 27 27 27 2 2 2 26 26 26 27 27 27 6 6 6 2 2 2 26 26 26 26 26 26 7 7 7 27 27 27 7 7 7 6 6 6 0 0 0 2 2 2 27 27 27 26 26 26 6 6 6 26 26 26 7 7 7 7 7 7 0 0 0 27 27 27 6 6 6 7 7 7 0 0 0 6 6 6 0 0 0 0 0 0 
26 26 26 27 27 27 27 27 27 21 21 21 27 27 27 20 20 20 21 21 21 0 0 0 27 27 27 20 20 20 20 20 20 1 1 1 21 21 21 1 1 1 0 0 0 25 25 25 27 27 27 21 21 21 20 20 20 0 0 0 20 20 20 1 1 1 1 1 1 25 25 25 21 21 21 0 0 0 1 1 1 25 2525 25 25 26 26 26 26 26 26 20 20 20 26 26 26 19 19 19 20 20 20 30 30 30 26 26 26 19 19 19 19 19 19 0 0 0 20 20 20 0 0 0 30 30 30 24 24 24 26 26 26 20 20 20 19 19 19 30 30 30 19 19 19 0 0 0 0 0 0 24 24 24 20 20 20 30 30 305 5 5 6 6 6 6 6 6 0 0 0 6 6 6 30 30 30 0 0 0 10 10 10 6 6 6 30 30 30 30 30 30 11 11 11 0 0 0 11 11 11 10 10 10 4 4 4 6 6 6 0 0 0 30 30 30 10 10 10 30 30 30 11 11 11 11 11 11 4 4 4 0 0 0 10 10 10 11 11 11 4 4 4 10 10 10 4 25 25 25 26 26 26 26 26 26 20 20 20 26 26 26 19 19 19 20 20 20 30 30 30 26 26 26 19 19 19 19 19 19 0 0 0 20 20 20 0 0 0 30 30 30 24 24 24 26 26 26 20 20 20 19 19 19 30 30 30 19 19 19 0 0 0 0 0 0 24 24 24 20 20 20 30 30 306 6 6 7 7 7 7 7 7 1 1 1 7 7 7 0 0 0 1 1 1 11 11 11 7 7 7 0 0 0 0 0 0 12 12 12 1 1 1 12 12 12 11 11 11 5 5 5 7 7 7 1 1 1 0 0 0 11 11 11 0 0 0 12 12 12 12 12 12 5 5 5 1 1 1 11 11 11 12 12 12 5 5 5 11 11 11 5 5 5 5 5 5 
6 6 6 7 7 7 7 7 7 1 1 1 7 7 7 0 0 0 1 1 1 11 11 11 7 7 7 0 0 0 0 0 0 12 12 12 1 1 1 12 12 12 11 11 11 5 5 5 7 7 7 1 1 1 0 0 0 11 11 11 0 0 0 12 12 12 12 12 12 5 5 5 1 1 1 11 11 11 12 12 12 5 5 5 11 11 11 5 5 5 5 5 5 
30 30 30 0 0 0 0 0 0 25 25 25 0 0 0 24 24 24 25 25 25 4 4 4 0 0 0 24 24 24 24 24 24 5 5 5 25 25 25 5 5 5 4 4 4 29 29 29 0 0 0 25 25 25 24 24 24 4 4 4 24 24 24 5 5 5 5 5 5 29 29 29 25 25 25 4 4 4 5 5 5 29 29 29 4 4 4 29 2926 26 26 27 27 27 27 27 27 21 21 21 27 27 27 20 20 20 21 21 21 0 0 0 27 27 27 20 20 20 20 20 20 1 1 1 21 21 21 1 1 1 0 0 0 25 25 25 27 27 27 21 21 21 20 20 20 0 0 0 20 20 20 1 1 1 1 1 1 25 25 25 21 21 21 0 0 0 1 1 1 25 255 5 5 6 6 6 6 6 6 0 0 0 6 6 6 30 30 30 0 0 0 10 10 10 6 6 6 30 30 30 30 30 30 11 11 11 0 0 0 11 11 11 10 10 10 4 4 4 6 6 6 0 0 0 30 30 30 10 10 10 30 30 30 11 11 11 11 11 11 4 4 4 0 0 0 10 10 10 11 11 11 4 4 4 10 10 10 4 6 6 6 7 7 7 7 7 7 1 1 1 7 7 7 0 0 0 1 1 1 11 11 11 7 7 7 0 0 0 0 0 0 12 12 12 1 1 1 12 12 12 11 11 11 5 5 5 7 7 7 1 1 1 0 0 0 11 11 11 0 0 0 12 12 12 12 12 12 5 5 5 1 1 1 11 11 11 12 12 12 5 5 5 11 11 11 5 5 5 5 5 5 
30 30 30 0 0 0 0 0 0 25 25 25 0 0 0 24 24 24 25 25 25 4 4 4 0 0 0 24 24 24 24 24 24 5 5 5 25 25 25 5 5 5 4 4 4 29 29 29 0 0 0 25 25 25 24 24 24 4 4 4 24 24 24 5 5 5 5 5 5 29 29 29 25 25 25 4 4 4 5 5 5 29 29 29 4 4 4 29 295 5 5 6 6 6 6 6 6 0 0 0 6 6 6 30 30 30 0 0 0 10 10 10 6 6 6 30 30 30 30 30 30 11 11 11 0 0 0 11 11 11 10 10 10 4 4 4 6 6 6 0 0 0 30 30 30 10 10 10 30 30 30 11 11 11 11 11 11 4 4 4 0 0 0 10 10 10 11 11 11 4 4 4 10 10 10 4 30 30 30 0 0 0 0 0 0 25 25 25 0 0 0 24 24 24 25 25 25 4 4 4 0 0 0 24 24 24 24 24 24 5 5 5 25 25 25 5 5 5 4 4 4 29 29 29 0 0 0 25 25 25 24 24 24 4 4 4 24 24 24 5 5 5 5 5 5 29 29 29 25 25 25 4 4 4 5 5 5 29 29 29 4 4 4 29 2930 30 30 0 0 0 0 0 0 25 25 25 0 0 0 24 24 24 25 25 25 4 4 4 0 0 0 24 24 24 24 24 24 5 5 5 25 25 25 5 5 5 4 4 4 29 29 29 0 0 0 25 25 25 24 24 24 4 4 4 24 24 24 5 5 5 5 5 5 29 29 29 25 25 25 4 4 4 5 5 5 29 29 29 4 4 4 29 29